src/img/icons/icon-filter-tb.svg

<svg width="15" height="15" viewBox="0 0 15 15" fill="none" xmlns="http://www.w3.org/2000/svg">
<path fill-rule="evenodd" clip-rule="evenodd" d="M-0.00012 3.74973H3.74988V-0.00015H-0.00012V3.74973ZM5.62488 14.9999H9.37488V11.2497H5.62488V14.9999ZM-0.00012 14.9999H3.74988V11.2497H-0.00012V14.9999ZM-0.00012 9.37492H3.74988V5.62479H-0.00012V9.37492ZM5.62488 9.37492H9.37488V5.62479H5.62488V9.37492ZM11.2499 -0.00015V3.74973H14.9999V-0.00015H11.2499ZM5.62488 3.74973H9.37488V-0.00015H5.62488V3.74973ZM11.2499 9.37492H14.9999V5.62479H11.2499V9.37492ZM11.2499 14.9999H14.9999V11.2497H11.2499V14.9999Z" fill="#FE3E57"/>
</svg>

<svg width="15" height="15" fill="none" xmlns="http://www.w3.org/2000/svg"><path fill-rule="evenodd" clip-rule="evenodd" d="M0 3.75h3.75V0H0v3.75zM5.625 15h3.75v-3.75h-3.75V15zM0 15h3.75v-3.75H0V15zm0-5.625h3.75v-3.75H0v3.75zm5.625 0h3.75v-3.75h-3.75v3.75zM11.25 0v3.75H15V0h-3.75zM5.625 3.75h3.75V0h-3.75v3.75zm5.625 5.625H15v-3.75h-3.75v3.75zm0 5.625H15v-3.75h-3.75V15z" fill="#FE3E57"/></svg>
